X:1
T:Herr Jesu Christe lehre mich
T:Joachim a Burck
T:Source : Breitkopf & Härtel---Leipzig---R.Eitner---1898. First print : 20 Deutsche Liedlein mit 4 Stimmen---Erfurt---G.Baumann---1575. Editor : André Vierendeels (03/11/17). Notes : Original clefs : C1, C3, C4, F4 Editorial accidentals above the staff Text bu Ludovico Helmbold (Christeliche Reimen)
T:Herr Jesu Christe lehre mich
T:©
T:©
T:©
C:Joachim a Burck
Z:©
%%score [ 1 [ 2 3 ] 4 ]
L:1/8
Q:1/4=120
M:4/4
K:F
V:1 treble nm="Alto" snm="A"
V:2 treble-8 nm="Tenor 1" snm="T 1"
V:3 treble-8 nm="Tenor 2" snm="T 2"
V:4 bass nm="Bass" snm="B"
V:1
"^1)" D4 D4 | E2 F4 G2 | F2 F2 E4 | E2 F4 F2 | D2 E2 F4- | F2 F2 D4 | z2 F2 F4 | G2 A4 A2 | %8
w: Herr Jhe-|su Chri- ste,|leh- re mich,|Herr Jhe- su|Chri- ste leh-|* re mich,|dass ich|nur seh al-|
w: Herr, dass|ich dis Ei-|ni- ge gleub,|Herr, dass ich|dis Ei- ni-|* ge gleub,|die mensch-|lich Ver- nunft|
 G4 G4- | G2 FE F4 | G4 z2 D2 | _E4 D4 | G6 G2 | A3 G F2 F2 | D2 D4 D2 | E4 F4 | E2 D2 D4- | %17
w: lein auf|_ _ _ _|dich, dass|ich nur|seh al-|lein _ _ auf|dich, der du|bist wahr|e- wi- ger|
w: in mir|_ _ _ _|tteub, die|mensch- lich|Ver- nunft|in _ _ mir|teub; durch dei-|nen Geist|mach du mich|
 D2 CB, C4 | D4 z2 G2- | G2 F4 E2 | F2 DE FEFG |"^#" A2 G4 F2 | G4 G4- | G2 F4 E2 | F4 G4 | %25
w: _ _ _ _|Gott, wirst|_ Mensch _|_ lei- * * * * *||dest für|_ mich den|Todt, für|
w: _ _ _ _|weis' in|_ Ein- falt|dir zu _ _ _ _ _|_ Lob und|Preis, zu|_ Lob und|Preis, zu|
 _E4 D4 | D8 |] %27
w: mich den|Todt.|
w: Lob und|Preis.|
V:2
"^2)""^1)" B4 B4 | c2 d4 d2 | d2 d2 G4 | c2 c4 d2 | BG B4 A2 | B4 F4 | G2 d4 d2 | e2 f4 f2 | %8
w: Herr Jhe-|su Chri- ste,|leh- re mich,|Herr Jhe- su|Chri- * * ste|leh- re|mich, dass ich|nur seh al-|
 _ed d4 c2 | d4 z2 d2 | B6 A2 | c4 F4 | G4 d4 | f4 c4 | f6 d2 | c3 B A4 | B4 G4 | A8 | A4 z2 d2 | %19
w: lein _ _ auf|dich, dass|ich nur|seh al-|lein auf|dich, der|du bist|wahr _ _|e- wi-|ger|Gott, wirst|
 d4 c4 | B4 d4 | _e4 d4 | B4 d4 | d4 c4 | A4 G4 | c4 A4 | =B8 |] %27
w: Mensch, lei-|dest für|mich den|Todt, wirst|Mensch, lei-|dest für|mich den|Todt.|
V:3
"^1)" G4 G4 | G2 B4 B2 | A2 B2 c4 | G2 A4 A2 | B2 B2 c2 c2 | d4 z2 B2- | B2 B4 A2 | c6 d2 | B4 G4 | %9
w: Herr Jhe-|su Chri- ste,|leh- re mich,|Herr Jhe- su|Chri- ste leh- re|mich, dass|_ ich nur|seh al-|lein auf|
 A8 | z2 G4 ^F2 | G4 B4 | B2 B4 B2 | c4 z2 A2 | B4 F2 G2- | G2 A4 F2 | G2 FE D2 E2 | F2 ED E4 | %18
w: dich,|dass ich|nur seh|al- lein auf|dich, der|du bist wahr|_ e- wi-|ger _ _ _ _|_ _ _ _|
"^#" F4 z2 B2 | B3 A GF G2 | F4 B2 d2 | c3 B A2 A2 | G4 B4 | B4 G4 | d3 c B4 | A2 G4 ^F2 | G8 |] %27
w: Gott, wirst|Mensch, _ _ _ _|lei- dest für|mich _ _ den|Todt, wirst|Mensch, lei-|dest _ _|für mich den|Todt.|
V:4
"^1)" G,,4 G,,4 | C,2 B,,4 G,,2 | D,2 D,2 C,4 | C,2 F,4 D,2 | G,2 G,2 F,2 F,2 | B,,8 | %6
w: Herr Jhe-|su Chri- ste,|leh- re mich,|Herr Jhe- su|Chri- ste leh- re|mich,|
 z2 B,,2 D,4 | C,2 F,4 F,2 | G,4 _E,4 | D,6 D,2 | _E,4 D,4 | C,4 B,,4 | _E,4 G,4 | F,8 | %14
w: dass ich|nur seh al-|lein auf|dich, dass|ich nur|seh al-|lein auf|dich,|
 z2 B,,4 B,,2 | C,4 D,4 | G,,4 B,,4 | A,,8 | D,4 z2 G,,2 | B,,4 C,4 | D,4 B,,4 | C,4 D,4 | %22
w: der du|bist wahr|e- wi-|ger|Gott, wirst|Mznsch, lei-|dest für|mich den|
 G,,6 G,,2 | B,,4 C,4 | D,4 _E,4 | C,4 D,4 | G,,8 |] %27
w: Todt, wirst|Mensch, lei-|dest für|mich den|Todt.|

